svg/600/rounded/watch-fill.svg

<svg xmlns="http://www.w3.org/2000/svg" width="48" height="48" viewBox="0 -960 960 960"><path d="M421.609-53.999q-27.348 0-48.725-16.14-21.376-16.14-27.928-41.991l-35.565-128.13q-56.131-36.131-89.826-98.888-33.696-62.757-33.696-140.783 0-78.026 33.797-141.352 33.797-63.326 89.725-99.022l35.565-127.565q6.552-25.851 27.928-41.991 21.377-16.14 48.725-16.14h131.739q20.695 0 36.065 12.326 15.37 12.326 21.5 31.848l39.788 141.328q56.143 35.744 90.069 99.143t33.926 141.425q0 78.026-33.978 140.783-33.978 62.757-90.109 98.888l-35 128.13q-7.261 25.653-28.606 41.892-21.346 16.24-48.047 16.24H421.609ZM480-265.087q90.304 0 152.609-62.304Q694.913-389.696 694.913-480t-62.304-152.609Q570.304-694.913 480-694.913t-152.609 62.304Q265.087-570.304 265.087-480t62.304 152.609Q389.696-265.087 480-265.087Z"/></svg>

<svg xmlns="http://www.w3.org/2000/svg" width="48" height="48" viewBox="0 -960 960 960"><path d="M421.61-54q-27.35 0-48.73-16.14-21.37-16.14-27.92-41.99l-35.57-128.13q-56.13-36.13-89.83-98.89-33.69-62.76-33.69-140.78 0-78.03 33.8-141.35 33.79-63.33 89.72-99.02l35.57-127.57q6.55-25.85 27.92-41.99Q394.26-906 421.61-906h131.74q20.69 0 36.06 12.32 15.37 12.33 21.5 31.85L650.7-720.5q56.14 35.75 90.07 99.14 33.93 63.4 33.93 141.43 0 78.02-33.98 140.78-33.98 62.76-90.11 98.89l-35 128.13Q608.35-86.48 587-70.24 565.66-54 538.96-54H421.61ZM480-265.09q90.3 0 152.61-62.3 62.3-62.31 62.3-152.61 0-90.3-62.3-152.61-62.31-62.3-152.61-62.3-90.3 0-152.61 62.3-62.3 62.31-62.3 152.61 0 90.3 62.3 152.61 62.31 62.3 152.61 62.3Z"/></svg>
